Front/img/common-section_cover:sousmetier/illu-10.svg

<svg fill="none" xmlns="http://www.w3.org/2000/svg" viewBox="0 0 473 541"><path d="M283.642 97.35v442.999h-193v-443h193z" fill="#081B42"/><path d="M251.19 540.336V366.639h-54.924v173.697h54.924z" fill="#0B1B39"/><path d="M245.22 540.336V372.898h-42.985v167.438h42.985z" fill="#081B42"/><path d="M172.894 540.336V366.639h-54.925v173.697h54.925z" fill="#0B1B39"/><path d="M166.923 540.336V372.898h-42.985v167.438h42.985z" fill="#081B42"/><mask id="a" maskUnits="userSpaceOnUse" x="120" y="124" width="134" height="222"><path d="M253.527 190.772c0-36.788-29.822-66.611-66.61-66.611s-66.611 29.823-66.611 66.611v154.883h133.221V190.772z" fill="#E1E1E1"/></mask><g mask="url(#a)"><path opacity=".3" d="M253.527 124.161H120.306v221.494h133.221V124.161z" fill="#FAFAFC"/><path opacity=".6" d="M236.221 345.655L161.142 129.55c-8.4 2.988-13.5 7.293-15 9.071l73.5 207.034h16.579zM245.519 345.656l-73.877-219.307-4 .533 74.081 218.774h3.796z" fill="#152D5D"/></g><path fill="#F5F5F5" d="M238 384h-66v66h66z"/><path d="M172 384h-36v66h36v-66z" fill="#C4C4C4"/><path fill="#666A6A" d="M231 395h-51v11h51z"/><path fill="#E1E1E1" d="M200 433h-19v9h19z"/><path d="M197.5 436c.5.333 1.3 1 .5 1s-1.666-1-2-1.5c0 .5-.3 1.5-1.5 1.5s-1.5-.667-1.5-1c.167.333-.2 1-3 1h-7M196 440.5c.5 0 1.3-.2.5-1-1-1-2-1.5-2-.5 0 .8.334 1.333.5 1.5-.5-.833-1.5-2.3-1.5-1.5v1.5c-.5-.833-1.5-2.3-1.5-1.5 0 1-.5 1-1.5 1-.8 0-1.666-.667-2-1-.333.167-1.3.5-2.5.5" stroke="#000" stroke-width=".5"/><path fill="#C4C4C4" d="M192 450h-9v90h9z"/><path d="M409.482 488.21c0-.355.1-.71.156-1.109-.045.399-.111.754-.156 1.109z" fill="#000" opacity=".3"/><path d="M339.28 227.361l13.69 2.339-.689 10.423c-.133 5.721.322 10.311 1.734 12.484 5.911 9.126 8.267-12.196 13.156-11.73 4.89.465 7.168 6.031 3.656 15.522-3.511 9.491 9.112 12.13 10.201 17.452 1.089 5.322 9.568 35.292 0 45.548l-14.657-4.435a44.301 44.301 0 009.068-7.085c4.712-7.318.644-28.04.644-28.04s-17.535 11.453-27.78 2.428a13.313 13.313 0 01-2.223-2.573c-5.834-8.171-6.667-28.916-6.834-33.362-.166-4.446.034-18.971.034-18.971z" fill="#CEA999"/><path d="M412.616 309.942s5.312 4.435 10.101 17.74c4.79 13.305-7.667-7.662-7.667-7.662l-1.467-7.417-.967-2.661z" fill="#292289"/><path d="M357.815 199.274c-1.189 7.262-3.089 18.927-4.845 30.424 1.112-10.832 3.167-22.829 4.59-30.335l.255-.089z" fill="#CEA999"/><path d="M323.565 412.461s12.023-1.618 21.646-13.593c0 0-2.4 10.067 10.435 21.599 8.89 7.961 1.956 50.371-1.789 57.855 0 0 35.47 34.97 93.209 6.963 0 0-14.501-52.81-15.557-82.669-1.3-33.906-5.223-55.705-17.09-87.715-11.868-32.01-14.68-49.672-13.068-66.526 1.611-16.853.8-43.241-28.892-49.617-29.692-6.375-33.204 28.562-33.204 28.562s-2.622 44.672 9.057 54.906c10.234 9.025 27.78-2.428 27.78-2.428s4.068 20.723-.644 28.04c0 0-6.501 7.44-22.558 13.838-16.768 6.652-19.458 55.438-28.347 64.375" fill="#E2BBA6"/><path d="M351.506 244.735c-3.125-.892-9.487-3.343-12.277-4.457v-5.013l15.626-20.055 53.576 83.004 5.023 14.484-2.232 5.013c-7.144 4.011-17.859 1.672-22.324 0 .558-3.714 1.34-12.812 0-19.497-1.339-6.685-7.999-10.585-11.162-11.699h-17.3l-5.581-1.114c1.786-27.185-1.488-38.438-3.349-40.666z" fill="#D2AB96"/><path d="M355.302 474.35s-8.399 27.902-7.443 65.999H469l-11.162-29.394-12.872-33.667s-49.282 25.269-89.664-2.938z" fill="#F5F5F5"/><path d="M254.958 411.04c15.179-2.75 38.971-8.926 58.895-28.007 15.357-14.703 22.224-54.618 39.037-61.315a78.23 78.23 0 0017.28-9.302c26.336 8.681 37.232 2.724 42.466-2.731 2.796 1.751 9.195 12.499 13.829 24.595 12.223 31.877 7.778 47.156 9 81.051 1.112 29.859 9.513 61.958 9.513 61.958-8.124 37.043-91.121 1.031-91.121 1.031 3.267-8.693 10.646-49.895 1.789-57.856-12.835-11.531-10.434-21.598-10.434-21.598-9.624 11.997-24.625 18.849-24.625 18.849-22.747 13.05-53.15 13.66-65.629 12.595v-19.27z" fill="#FF8139"/><path d="M254.957 430.309v-7.362s18.724 2.639 34.448-4.734c15.724-7.374 29.737-8.482 40.082-11.554 10.346-3.071 20.48-22.685 20.48-22.685.889 20.346 14.257 23.55 22.391 40.137 6.034 12.308 1.689 44.817-.955 60.783-10.346-3.46-17.547-6.575-17.547-6.575 3.267-8.693 10.646-49.895 1.789-57.855-12.834-11.532-10.434-21.599-10.434-21.599-9.623 11.997-24.625 18.849-24.625 18.849-22.746 13.083-53.15 13.66-65.629 12.595z" fill="#D3662F"/><path d="M239.627 411.041c5.357 1.786 12.836.744 15.626 0v18.417c-9.488-.744-31.141-3.237-39.624-7.255-8.483-4.018-12.464-9.115-13.394-11.162l23.997-3.906c-.558-2.233-6.138-6.139-9.487-6.697-3.348-.558-2.79-3.349 0-3.349s10.046 1.116 13.394 5.581c3.349 4.465 2.791 6.139 9.488 8.371z" fill="#E2BBA6"/><path d="M354.63 241.516c-4.842-.967-13.718-4.431-17.551-6.042-.605-10.068 1.815-30.689 18.762-37.455 16.946-6.767 33.892-2.216 39.944 2.416 32.077-3.625 32.481 63.634 28.446 93.639-22.999 21.144-59.715 6.243-68.996 1.813 5.326-34.315 3.228-59.607-.605-70.079-2.905 7.25-1.21 13.492 0 15.708z" fill="#E9D694"/><path fill-rule="evenodd" clip-rule="evenodd" d="M348.402 202.088c9.557-4.172 25.24-7.364 39.938.867 12.846 7.193 8.455 17.37 3.711 28.364-3.706 8.589-7.627 17.677-3.711 26.229 8.93 19.497 8.372 25.625 2.233 47.351l-.056.201c11.44.384 23.505-2.142 33.155-11.014 4.035-30.004 3.632-97.263-28.445-93.639-6.052-4.631-22.999-9.182-39.945-2.416a25.763 25.763 0 00-6.88 4.057z" fill="#D6C589"/><path d="M447.324 523.357a5121.275 5121.275 0 00-9.656 16.24h-1.756c2.487-4.389 7.813-13.782 9.217-16.24 1.756-3.073-9.217-9.657-3.511-18.874 5.706-9.218 18.435-52.672 21.068-71.984 2.634-19.313 7.023-29.847 8.779-6.145 1.756 23.702-.439 90.419-11.412 92.174-8.779 1.405-12.144 3.804-12.729 4.829z" fill="#00B67A"/><path d="M447.426 519.809c4.828-11.851 15.625-47.14 20.19-93.491" stroke="#fff"/><path d="M396.071 514.542c-.351 16.153 3.658 23.117 5.706 24.58h25.897c5.618 0 7.608-7.9 7.901-11.851-2.195-75.056 21.946-142.686 10.973-145.285-16.679-3.95-50.038 112.366-50.477 132.556z" fill="#00B67A" stroke="#00B67A"/><path d="M414.542 540c-3.068-23.788-2.893-84.657 22.35-137.823M427.675 522.882c-3.219 1.024-10.447 4.652-13.607 10.973-2.78-1.171-9.305-5.004-13.168-10.973m26.775-17.996c-3.512.292-11.325 2.019-14.485 6.584-1.756-1.025-5.97-4.477-8.779-10.096m23.264-17.118c-2.341 0-8.252.615-13.168 3.073-1.756-1.317-5.443-5.092-6.145-9.657m20.19-16.24c-1.902-.146-6.671.175-10.534 2.633-1.17-.877-3.511-3.599-3.511-7.461m17.118-15.802c-2.195-.585-7.286-.614-10.095 3.951-.586-1.61-1.756-5.706-1.756-9.218m15.801-13.168c-1.902 0-6.145.527-7.9 2.634-.439-1.317-1.317-4.477-1.317-6.584M461.91 503.569c-1.609 1.902-6.057 5.882-10.973 6.584-1.17-1.17-3.336-4.74-2.634-9.656M464.105 489.963c-1.463 1.316-5.267 4.038-8.779 4.389-.878-.878-2.633-3.512-2.633-7.023m12.729-10.095c-1.025 1.316-3.775 3.95-6.584 3.95-.878-.732-2.634-2.897-2.634-5.706m10.973-12.29c-.731 1.17-2.809 3.511-5.267 3.511-1.024-.585-3.072-2.458-3.072-5.267m9.656-11.851c-.731 1.024-2.633 3.073-4.389 3.073-.732-.439-2.195-1.844-2.195-3.951m6.584-11.412c-.439 1.024-1.492 3.073-2.194 3.073-.878 0-2.195-1.756-2.195-3.073" stroke="#fff"/><path d="M394.656 528.149c0 6.321-3.511 9.949-5.267 10.973h-6.145c-5.969 0-8.632-7.315-9.217-10.973-6.145-16.24 3.95-58.816 9.217-71.106 5.267-12.29 9.664-20.833 6.145 6.145-3.95 30.286 5.267 57.061 5.267 64.961z" fill="#00B67A" stroke="#00B67A"/><path d="M386.316 539.561a170.5 170.5 0 01-.955-5.706m-.8-64.961c-1.005 5.408-1.603 11.212-1.898 17.118m7.604 40.82c-1.369 1.317-4.265 4.565-4.906 7.023m0 0c-1.583-.585-5.365-2.633-7.823-6.145m7.823 6.145a258.756 258.756 0 01-1.541-12.29m5.13-6.145c-1.226 1.024-3.967 3.687-5.13 6.145m0 0c-1.655-.585-5.404-2.545-7.16-5.706m7.16 5.706a277.817 277.817 0 01-.955-11.851m4.329-4.389c-.984.878-3.227 2.985-4.329 4.389m0 0c-1.19-.439-4.098-1.931-6.205-4.389m6.205 4.389a246.393 246.393 0 01-.419-11.851m3.87-2.633c-.971.439-3.104 1.58-3.87 2.633m0 0c-1.051-.585-3.416-2.194-4.469-3.95m4.469 3.95c-.041-3.937.021-7.917.217-11.851m3.214-2.194c-.679.292-2.273 1.141-3.214 2.194m0 0c-.684-.146-2.316-1.053-3.37-3.511" stroke="#fff"/><path d="M369.637 522.882c2.458 6.671 3.365 13.606 3.512 16.24h-2.634c-.439-3.073-.878-11.412-4.828-16.24-3.95-4.829-17.118.878-19.752-6.584-2.633-7.462-31.164-70.668-35.992-78.568-4.828-7.901-31.603-41.259 8.779-7.901 40.381 33.359 56.621 65.839 56.182 75.057-.438 9.217-8.339 9.656-5.267 17.996z" fill="#00B67A" stroke="#00B67A"/><path d="M366.126 518.054c-2.048-12.729-13.782-46.263-44.332-78.568M368.32 496.546c-.439 2.78-1.931 8.955-4.389 11.413-3.219-.147-11.675-1.844-19.752-7.462m17.557-15.802c0 2.488-.702 7.901-3.511 9.657-2.487-.439-8.779-2.546-14.046-7.462m9.657-14.485c.439 1.756.702 5.97-1.756 8.779-2.487-.439-8.515-2.282-12.729-6.145m6.145-12.729c.146 1.609.263 5.179-.439 6.584-2.194-.146-7.286-.878-10.095-2.634m1.317-14.923c.439.878 1.053 3.072 0 4.828-1.317 2.195-8.779-1.756-10.974-2.633" stroke="#fff"/><path d="M214 419.5l36.5-6-37.5-15-32 2.5 33 18.5z" fill="#CCD2DD"/><path d="M198.503 406.733c.385.208 1.084.386.801-.562-.354-1.185-.915-1.986-1.331-1.217-.333.616-.298 1.165-.239 1.363-.038-.849-.198-2.394-.531-1.778l-.624 1.154c-.038-.849-.198-2.394-.53-1.778-.416.769-.801.561-1.571.146-.615-.333-1.005-1.207-1.123-1.602-.326-.01-1.209-.156-2.132-.655M230 414.5l-16.5-7.5m9.5 8l-15-7.5m8.5 8.5l-15-8" stroke="#000" stroke-width=".3"/><path d="M202.5 400.5l7.5 3.5-5.5.5-7-3.5 5-.5z" fill="#152D5D"/><path d="M206.5 403l1 .5h-1c-.333-.167-1.2-.5-2-.5-1 0-1 .5 0 1M201.853 402.544c.002.008.014.036.079.067a.888.888 0 00.291.068c.257.023.605-.008.982-.103.377-.096.699-.235.913-.378a.884.884 0 00.224-.198c.042-.059.04-.088.037-.097-.002-.009-.014-.036-.079-.067a.881.881 0 00-.291-.068 3.032 3.032 0 00-.982.103 3.04 3.04 0 00-.913.378.884.884 0 00-.224.198c-.042.058-.039.088-.037.097zM200.237 401.694c.002.009.014.036.079.067a.881.881 0 00.291.068c.256.024.605-.007.982-.103.377-.095.698-.235.913-.378a.84.84 0 00.223-.198c.043-.058.04-.088.038-.097-.002-.008-.014-.036-.079-.067a.888.888 0 00-.291-.068 3.095 3.095 0 00-.983.103 3.059 3.059 0 00-.912.378.884.884 0 00-.224.198c-.042.059-.04.088-.037.097z" stroke="#fff" stroke-width=".3"/><ellipse rx="4.905" ry="1.305" transform="scale(-1 1) rotate(-26.238 765.485 702.692)" fill="#fff"/></svg>

<svg width="473" height="541" viewBox="0 0 473 541" fill="none" xmlns="http://www.w3.org/2000/svg">
<path d="M283.642 97.3491V540.349H90.6416V97.3491H283.642Z" fill="#081B42"/>
<path d="M251.19 540.336V366.639H196.266V540.336H251.19Z" fill="#0B1B39"/>
<path d="M245.22 540.336V372.898H202.235V540.336H245.22Z" fill="#081B42"/>
<path d="M172.894 540.336V366.639H117.969V540.336H172.894Z" fill="#0B1B39"/>
<path d="M166.923 540.336V372.898H123.938V540.336H166.923Z" fill="#081B42"/>
<mask id="mask0" mask-type="alpha" maskUnits="userSpaceOnUse" x="120" y="124" width="134" height="222">
<path d="M253.527 190.772C253.527 153.984 223.705 124.161 186.917 124.161C150.129 124.161 120.306 153.984 120.306 190.772V345.655H253.527V190.772Z" fill="#E1E1E1"/>
</mask>
<g mask="url(#mask0)">
<path opacity="0.3" d="M253.527 124.161H120.306V345.655H253.527V124.161Z" fill="#FAFAFC"/>
<path opacity="0.6" d="M236.221 345.655L161.142 129.55C152.742 132.538 147.642 136.843 146.142 138.621L219.642 345.655H236.221Z" fill="#152D5D"/>
<path opacity="0.6" d="M245.519 345.656L171.642 126.349L167.642 126.882L241.723 345.656H245.519Z" fill="#152D5D"/>
</g>
<rect width="66" height="66" transform="matrix(-1 0 0 1 238 384)" fill="#F5F5F5"/>
<path d="M172 384H136V450H172V384Z" fill="#C4C4C4"/>
<rect width="51" height="11" transform="matrix(-1 0 0 1 231 395)" fill="#666A6A"/>
<rect width="19" height="9" transform="matrix(-1 0 0 1 200 433)" fill="#E1E1E1"/>
<path d="M197.5 436C198 436.333 198.8 437 198 437C197.2 437 196.334 436 196 435.5C196 436 195.7 437 194.5 437C193.3 437 193 436.333 193 436C193.167 436.333 192.8 437 190 437C187.2 437 184.167 437 183 437" stroke="black" stroke-width="0.5"/>
<path d="M196 440.5C196.5 440.5 197.3 440.3 196.5 439.5C195.5 438.5 194.5 438 194.5 439C194.5 439.8 194.834 440.333 195 440.5C194.5 439.667 193.5 438.2 193.5 439C193.5 439.8 193.5 440.333 193.5 440.5C193 439.667 192 438.2 192 439C192 440 191.5 440 190.5 440C189.7 440 188.834 439.333 188.5 439C188.167 439.167 187.2 439.5 186 439.5" stroke="black" stroke-width="0.5"/>
<rect width="9" height="90" transform="matrix(-1 0 0 1 192 450)" fill="#C4C4C4"/>
<g style="mix-blend-mode:multiply" opacity="0.3">
<path d="M409.482 488.21C409.482 487.855 409.582 487.5 409.638 487.101C409.593 487.5 409.527 487.855 409.482 488.21Z" fill="black"/>
</g>
<path d="M339.28 227.361L352.97 229.7L352.281 240.123C352.148 245.844 352.603 250.434 354.015 252.607C359.926 261.733 362.282 240.411 367.171 240.877C372.061 241.342 374.339 246.908 370.827 256.399C367.316 265.89 379.939 268.529 381.028 273.851C382.117 279.173 390.596 309.143 381.028 319.399L366.371 314.964C369.69 313.006 372.738 310.624 375.439 307.879C380.151 300.561 376.083 279.839 376.083 279.839C376.083 279.839 358.548 291.292 348.303 282.267C347.455 281.508 346.708 280.643 346.08 279.694C340.246 271.523 339.413 250.778 339.246 246.332C339.08 241.886 339.28 227.361 339.28 227.361Z" fill="#CEA999"/>
<path d="M412.616 309.942C412.616 309.942 417.928 314.377 422.717 327.682C427.507 340.987 415.05 320.02 415.05 320.02L413.583 312.603L412.616 309.942Z" fill="#292289"/>
<path d="M357.815 199.274C356.626 206.536 354.726 218.201 352.97 229.698C354.082 218.866 356.137 206.869 357.56 199.363L357.815 199.274Z" fill="#CEA999"/>
<path d="M323.565 412.461C323.565 412.461 335.588 410.843 345.211 398.868C345.211 398.868 342.811 408.935 355.646 420.467C364.536 428.428 357.602 470.838 353.857 478.322C353.857 478.322 389.327 513.292 447.066 485.285C447.066 485.285 432.565 432.475 431.509 402.616C430.209 368.71 426.286 346.911 414.419 314.901C402.551 282.891 399.739 265.229 401.351 248.375C402.962 231.522 402.151 205.134 372.459 198.758C342.767 192.383 339.255 227.32 339.255 227.32C339.255 227.32 336.633 271.992 348.312 282.226C358.546 291.251 376.092 279.798 376.092 279.798C376.092 279.798 380.16 300.521 375.448 307.838C375.448 307.838 368.947 315.278 352.89 321.676C336.122 328.328 333.432 377.114 324.543 386.051" fill="#E2BBA6"/>
<path d="M351.506 244.735C348.381 243.843 342.019 241.392 339.229 240.278V235.265L354.855 215.21L408.431 298.214L413.454 312.698L411.222 317.711C404.078 321.722 393.363 319.383 388.898 317.711C389.456 313.997 390.238 304.899 388.898 298.214C387.559 291.529 380.899 287.629 377.736 286.515H360.436L354.855 285.401C356.641 258.216 353.367 246.963 351.506 244.735Z" fill="#D2AB96"/>
<path d="M355.302 474.35C355.302 474.35 346.903 502.252 347.859 540.349H452.192H469L457.838 510.955L444.966 477.288C444.966 477.288 395.684 502.557 355.302 474.35Z" fill="#F5F5F5"/>
<path d="M254.958 411.04C270.137 408.29 293.929 402.114 313.853 383.033C329.21 368.33 336.077 328.415 352.89 321.718C359.019 319.354 364.825 316.229 370.17 312.416C396.506 321.097 407.402 315.14 412.636 309.685C415.432 311.436 421.831 322.184 426.465 334.28C438.688 366.157 434.243 381.436 435.465 415.331C436.577 445.19 444.978 477.289 444.978 477.289C436.854 514.332 353.857 478.32 353.857 478.32C357.124 469.627 364.503 428.425 355.646 420.464C342.811 408.933 345.212 398.866 345.212 398.866C335.588 410.863 320.587 417.715 320.587 417.715C297.84 430.765 267.437 431.375 254.958 430.31V411.04Z" fill="#FF8139"/>
<path d="M254.957 430.309V422.947C254.957 422.947 273.681 425.586 289.405 418.213C305.129 410.839 319.142 409.731 329.487 406.659C339.833 403.588 349.967 383.974 349.967 383.974C350.856 404.32 364.224 407.524 372.358 424.111C378.392 436.419 374.047 468.928 371.403 484.894C361.057 481.434 353.856 478.319 353.856 478.319C357.123 469.626 364.502 428.424 355.645 420.464C342.811 408.932 345.211 398.865 345.211 398.865C335.588 410.862 320.586 417.714 320.586 417.714C297.84 430.797 267.436 431.374 254.957 430.309Z" fill="#D3662F"/>
<path d="M239.627 411.041C244.984 412.827 252.463 411.785 255.253 411.041V429.458C245.765 428.714 224.112 426.221 215.629 422.203C207.146 418.185 203.165 413.088 202.235 411.041L226.232 407.135C225.674 404.902 220.094 400.996 216.745 400.438C213.397 399.88 213.955 397.089 216.745 397.089C219.535 397.089 226.791 398.205 230.139 402.67C233.488 407.135 232.93 408.809 239.627 411.041Z" fill="#E2BBA6"/>
<path d="M354.63 241.516C349.788 240.549 340.912 237.085 337.079 235.474C336.474 225.406 338.894 204.785 355.841 198.019C372.787 191.252 389.733 195.803 395.785 200.435C427.862 196.81 428.266 264.069 424.231 294.074C401.232 315.218 364.516 300.317 355.235 295.887C360.561 261.572 358.463 236.28 354.63 225.808C351.725 233.058 353.42 239.3 354.63 241.516Z" fill="#E9D694"/>
<path fill-rule="evenodd" clip-rule="evenodd" d="M348.402 202.088C357.959 197.916 373.642 194.724 388.34 202.955C401.186 210.148 396.795 220.325 392.051 231.319C388.345 239.908 384.424 248.996 388.34 257.548C397.27 277.045 396.712 283.173 390.573 304.899C390.554 304.966 390.535 305.033 390.517 305.1C401.957 305.484 414.022 302.958 423.672 294.086C427.707 264.082 427.304 196.823 395.227 200.447C389.175 195.816 372.228 191.265 355.282 198.031C352.653 199.08 350.374 200.463 348.402 202.088Z" fill="#D6C589"/>
<path d="M447.324 523.357C445.217 526.868 440.009 535.647 437.668 539.597H435.912C438.399 535.208 443.725 525.815 445.129 523.357C446.885 520.284 435.912 513.7 441.618 504.483C447.324 495.265 460.053 451.811 462.686 432.499C465.32 413.186 469.709 402.652 471.465 426.354C473.221 450.056 471.026 516.773 460.053 518.528C451.274 519.933 447.909 522.332 447.324 523.357Z" fill="#00B67A"/>
<path d="M447.426 519.809C452.254 507.958 463.051 472.669 467.616 426.318" stroke="white"/>
<path d="M396.071 514.542C395.72 530.695 399.729 537.659 401.777 539.122H427.674C433.292 539.122 435.282 531.222 435.575 527.271C433.38 452.215 457.521 384.585 446.548 381.986C429.869 378.036 396.51 494.352 396.071 514.542Z" fill="#00B67A" stroke="#00B67A"/>
<path d="M414.542 540C411.474 516.212 411.649 455.343 436.892 402.177" stroke="white"/>
<path d="M427.675 522.882C424.456 523.906 417.228 527.534 414.068 533.855C411.288 532.684 404.763 528.851 400.9 522.882M427.675 504.886C424.163 505.178 416.35 506.905 413.19 511.47C411.434 510.445 407.22 506.993 404.411 501.374M427.675 484.256C425.334 484.256 419.423 484.871 414.507 487.329C412.751 486.012 409.064 482.237 408.362 477.672M428.552 461.432C426.65 461.286 421.881 461.607 418.018 464.065C416.848 463.188 414.507 460.466 414.507 456.604M431.625 440.802C429.43 440.217 424.339 440.188 421.53 444.753C420.944 443.143 419.774 439.047 419.774 435.535M435.575 422.367C433.673 422.367 429.43 422.894 427.675 425.001C427.236 423.684 426.358 420.524 426.358 418.417" stroke="white"/>
<path d="M461.91 503.569C460.301 505.471 455.853 509.451 450.937 510.153C449.767 508.983 447.601 505.413 448.303 500.497" stroke="white"/>
<path d="M464.105 489.963C462.642 491.279 458.838 494.001 455.326 494.352C454.448 493.474 452.693 490.84 452.693 487.329M465.422 477.234C464.397 478.55 461.647 481.184 458.838 481.184C457.96 480.452 456.204 478.287 456.204 475.478M467.177 463.188C466.446 464.358 464.368 466.699 461.91 466.699C460.886 466.114 458.838 464.241 458.838 461.432M468.494 449.581C467.763 450.605 465.861 452.654 464.105 452.654C463.373 452.215 461.91 450.81 461.91 448.703M468.494 437.291C468.055 438.315 467.002 440.364 466.3 440.364C465.422 440.364 464.105 438.608 464.105 437.291" stroke="white"/>
<path d="M394.656 528.149C394.656 534.47 391.145 538.098 389.389 539.122H383.244C377.275 539.122 374.612 531.807 374.027 528.149C367.882 511.909 377.977 469.333 383.244 457.043C388.511 444.753 392.908 436.21 389.389 463.188C385.439 493.474 394.656 520.249 394.656 528.149Z" fill="#00B67A" stroke="#00B67A"/>
<path d="M386.316 539.561C386.012 537.933 385.688 536.015 385.361 533.855M384.561 468.894C383.556 474.302 382.958 480.106 382.663 486.012M390.267 526.832C388.898 528.149 386.002 531.397 385.361 533.855M385.361 533.855C383.778 533.27 379.996 531.222 377.538 527.71M385.361 533.855C384.828 530.327 384.288 526.157 383.82 521.565M388.95 515.42C387.724 516.444 384.983 519.107 383.82 521.565M383.82 521.565C382.165 520.98 378.416 519.02 376.66 515.859M383.82 521.565C383.441 517.852 383.109 513.862 382.865 509.714M387.194 505.325C386.21 506.203 383.967 508.31 382.865 509.714M382.865 509.714C381.675 509.275 378.767 507.783 376.66 505.325M382.865 509.714C382.639 505.869 382.488 501.888 382.446 497.863M386.316 495.23C385.345 495.669 383.212 496.81 382.446 497.863M382.446 497.863C381.395 497.278 379.03 495.669 377.977 493.913M382.446 497.863C382.405 493.926 382.467 489.946 382.663 486.012M385.877 483.818C385.198 484.11 383.604 484.959 382.663 486.012M382.663 486.012C381.979 485.866 380.347 484.959 379.293 482.501" stroke="white"/>
<path d="M369.637 522.882C372.095 529.553 373.002 536.488 373.149 539.122H370.515C370.076 536.049 369.637 527.71 365.687 522.882C361.737 518.053 348.569 523.76 345.935 516.298C343.302 508.836 314.771 445.63 309.943 437.73C305.115 429.829 278.34 396.471 318.722 429.829C359.103 463.188 375.343 495.668 374.904 504.886C374.466 514.103 366.565 514.542 369.637 522.882Z" fill="#00B67A" stroke="#00B67A"/>
<path d="M366.126 518.054C364.078 505.325 352.344 471.791 321.794 439.486" stroke="white"/>
<path d="M368.32 496.546C367.881 499.326 366.389 505.501 363.931 507.959C360.712 507.812 352.256 506.115 344.179 500.497M361.736 484.695C361.736 487.183 361.034 492.596 358.225 494.352C355.738 493.913 349.446 491.806 344.179 486.89M353.836 472.405C354.275 474.161 354.538 478.375 352.08 481.184C349.593 480.745 343.565 478.902 339.351 475.039M345.496 462.31C345.642 463.919 345.759 467.489 345.057 468.894C342.863 468.748 337.771 468.016 334.962 466.26M336.279 451.337C336.718 452.215 337.332 454.409 336.279 456.165C334.962 458.36 327.5 454.409 325.305 453.532" stroke="white"/>
<path d="M214 419.5L250.5 413.5L213 398.5L181 401L214 419.5Z" fill="#CCD2DD"/>
<path d="M198.503 406.733C198.888 406.941 199.587 407.119 199.304 406.171C198.95 404.986 198.389 404.185 197.973 404.954C197.64 405.57 197.675 406.119 197.734 406.317C197.696 405.468 197.536 403.923 197.203 404.539C196.87 405.154 196.649 405.565 196.579 405.693C196.541 404.844 196.381 403.299 196.049 403.915C195.633 404.684 195.248 404.476 194.478 404.061C193.863 403.728 193.473 402.854 193.355 402.459C193.029 402.449 192.146 402.303 191.223 401.804" stroke="black" stroke-width="0.3"/>
<path d="M230 414.5L213.5 407M223 415L208 407.5M216.5 416L201.5 408" stroke="black" stroke-width="0.3"/>
<path d="M202.5 400.5L210 404L204.5 404.5L197.5 401L202.5 400.5Z" fill="#152D5D"/>
<path d="M206.5 403L207.5 403.5H206.5C206.167 403.333 205.3 403 204.5 403C203.5 403 203.5 403.5 204.5 404" stroke="white" stroke-width="0.3"/>
<path d="M201.853 402.544C201.855 402.552 201.867 402.58 201.932 402.611C201.997 402.642 202.094 402.667 202.223 402.679C202.48 402.702 202.828 402.671 203.205 402.576C203.582 402.48 203.904 402.341 204.118 402.198C204.226 402.126 204.3 402.058 204.342 402C204.384 401.941 204.382 401.912 204.379 401.903C204.377 401.894 204.365 401.867 204.3 401.836C204.236 401.805 204.138 401.78 204.009 401.768C203.752 401.744 203.404 401.775 203.027 401.871C202.65 401.966 202.328 402.106 202.114 402.249C202.006 402.321 201.932 402.389 201.89 402.447C201.848 402.505 201.851 402.535 201.853 402.544Z" stroke="white" stroke-width="0.3"/>
<path d="M200.237 401.694C200.239 401.703 200.251 401.73 200.316 401.761C200.38 401.792 200.478 401.817 200.607 401.829C200.863 401.853 201.212 401.822 201.589 401.726C201.966 401.631 202.287 401.491 202.502 401.348C202.61 401.277 202.684 401.208 202.725 401.15C202.768 401.092 202.765 401.062 202.763 401.053C202.761 401.045 202.749 401.017 202.684 400.986C202.619 400.955 202.522 400.93 202.393 400.918C202.136 400.895 201.787 400.926 201.41 401.021C201.033 401.117 200.712 401.256 200.498 401.399C200.39 401.471 200.316 401.539 200.274 401.597C200.232 401.656 200.234 401.685 200.237 401.694Z" stroke="white" stroke-width="0.3"/>
<ellipse rx="4.90471" ry="1.30536" transform="matrix(-0.896967 -0.442097 -0.442097 0.896967 231.788 410.819)" fill="white"/>
</svg>
